logos/numenta.svg

<svg xmlns="http://www.w3.org/2000/svg" width="1024" height="237" style="shape-rendering:geometricPrecision;text-rendering:geometricPrecision;image-rendering:optimizeQuality;fill-rule:evenodd;clip-rule:evenodd"><path style="opacity:.967" fill="#00a0de" d="M118.5-.5h16c16.66 7.666 22.16 20.333 16.5 38-1.948 4.112-4.781 7.446-8.5 10-2.382.85-4.382 2.184-6 4a52.435 52.435 0 0 1-20 0c-1.618-1.816-3.618-3.15-6-4-11.857-10.487-14.024-22.82-6.5-37 3.951-5.034 8.784-8.701 14.5-11z"/><path style="opacity:.95" fill="#231f20" d="M110.5 47.5c2.382.85 4.382 2.184 6 4a2947.83 2947.83 0 0 1-25 43.5c9.744 8.573 12.577 19.073 8.5 31.5a77.941 77.941 0 0 1-5.5 9l23 44c3.139 1.103 6.306 1.103 9.5 0 3.031.539 6.031 1.206 9 2a676.546 676.546 0 0 0 22-44c.667-1.333.667-2.667 0-4-7.832-10.505-8.499-21.505-2-33l5.5-5.5a915.373 915.373 0 0 0-25-43.5c1.618-1.816 3.618-3.15 6-4 8.321 14.64 16.655 29.306 25 44 16.969-5.43 29.135-.096 36.5 16 3.297 12.775-.203 23.275-10.5 31.5a1297.793 1297.793 0 0 1 24 42c21.113-3.937 33.446 4.73 37 26-1.611 16.445-10.611 25.278-27 26.5-19.211-2.046-28.044-12.713-26.5-32 1.494-7.004 4.994-12.671 10.5-17a2639.698 2639.698 0 0 1-24-42.5c-3.001.056-6.001.556-9 1.5a36.636 36.636 0 0 1-13.5-4 657.99 657.99 0 0 0-21.5 45.5c13.637 14.993 13.303 29.659-1 44-15.022 7.969-27.856 5.469-38.5-7.5-7.358-14.574-4.858-27.241 7.5-38a1386.564 1386.564 0 0 0-23.5-44c-7.276 3.746-14.776 4.579-22.5 2.5A2526.725 2526.725 0 0 1 42 183.5c3.578 3.638 6.578 7.971 9 13 4.84 21.679-3.66 34.013-25.5 37-12.688-.995-21.355-7.329-26-19v-15c6.968-16.27 19.134-22.603 36.5-19A2526.725 2526.725 0 0 0 59.5 139c-11.669-10.608-14.169-23.108-7.5-37.5 8.696-11.285 19.862-14.618 33.5-10 8.361-14.684 16.695-29.35 25-44zm6 4a52.435 52.435 0 0 0 20 0 915.373 915.373 0 0 1 25 43.5l-5.5 5.5c-6.499 11.495-5.832 22.495 2 33 .667 1.333.667 2.667 0 4a676.546 676.546 0 0 1-22 44 108.036 108.036 0 0 0-9-2c-3.194 1.103-6.361 1.103-9.5 0l-23-44a77.941 77.941 0 0 0 5.5-9c4.077-12.427 1.244-22.927-8.5-31.5a2947.83 2947.83 0 0 0 25-43.5z"/><path style="opacity:.958" fill="#211f1e" d="M310.5 83.5c10.249-.32 20.416.014 30.5 1a1630.565 1630.565 0 0 1 36 95c.5-31.998.667-63.998.5-96h29v150a237.256 237.256 0 0 1-30.5-1 1121.272 1121.272 0 0 1-36-93c-.5 31.332-.667 62.665-.5 94h-29v-150z"/><path style="opacity:.955" fill="#211f1e" d="M882.5 89.5h27v31c10.672-.167 21.339 0 32 .5l-7 19c-8.327.5-16.66.666-25 .5-.167 23.336 0 46.669.5 70 3.243 1.763 6.743 2.429 10.5 2v21c-10.592 1.943-20.925 1.109-31-2.5a25.55 25.55 0 0 1-5.5-6.5 3101.943 3101.943 0 0 1-1.5-135zM576.5 117.5c8.143-.851 15.81.649 23 4.5 2.933 2.264 5.1 5.098 6.5 8.5 5.933-9.217 14.433-13.551 25.5-13 14.717-.743 23.884 5.924 27.5 20 .5 31.998.667 63.998.5 96h-27c.167-28.335 0-56.669-.5-85-2.375-9.603-8.208-12.437-17.5-8.5-3.254 2.342-5.088 5.509-5.5 9.5-.5 27.998-.667 55.998-.5 84h-27c.167-28.669 0-57.335-.5-86-3.319-8.962-9.486-11.462-18.5-7.5-2.394 1.952-3.894 4.452-4.5 7.5-.5 28.665-.667 57.331-.5 86h-27v-113h27a40.914 40.914 0 0 0 .5 9c4.362-6.922 10.529-10.922 18.5-12z"/><path style="opacity:.962" fill="#211f1e" d="M727.5 236.5h-9c-23.55-2.057-35.717-15.057-36.5-39a394.46 394.46 0 0 1 1-54c4.292-14.962 14.126-23.462 29.5-25.5 12.391-1.769 24.058.231 35 6 5.595 4.591 9.095 10.424 10.5 17.5a273.146 273.146 0 0 1 2.5 41h-52c-.605 9.494.229 18.828 2.5 28 5.214 5.342 11.047 6.175 17.5 2.5 1.817-1.8 2.984-3.966 3.5-6.5.499-3.986.666-7.986.5-12h27c1.103 11.255-1.397 21.589-7.5 31-6.907 6.683-15.074 10.349-24.5 11zm-12-98c9.368-2.409 15.201.924 17.5 10 .499 4.321.666 8.654.5 13h-25c-.581-6.561.252-12.895 2.5-19 1.397-1.57 2.897-2.904 4.5-4z"/><path style="opacity:.957" fill="#211f1e" d="M826.5 117.5c14.09-1.874 24.256 3.459 30.5 16a1726.96 1726.96 0 0 1 1.5 100h-27c.167-28.002 0-56.002-.5-84-3.014-9.216-8.847-11.383-17.5-6.5a25.724 25.724 0 0 0-3.5 7.5c-.5 27.665-.667 55.331-.5 83h-27v-113h27a40.914 40.914 0 0 0 .5 9c3.75-6.607 9.25-10.607 16.5-12z"/><path style="opacity:.965" fill="#211f1e" d="M1023.5 227.5v6a157.15 157.15 0 0 1-25-1l-2.5-8c-5.066 5.936-11.232 9.936-18.5 12h-7c-18.851-2.609-27.517-13.609-26-33-1.031-14.441 4.636-25.275 17-32.5a416.533 416.533 0 0 1 25-11c8.227-3.943 10.727-10.11 7.5-18.5-2.653-2.441-5.82-3.441-9.5-3-10.596-.063-15.262 5.271-14 16h-25c-1.902-21.579 7.765-33.746 29-36.5 10.896-1.199 21.562-.199 32 3 8.11 3.112 12.95 8.946 14.5 17.5.33 27.333.67 54.667 1 82 .19 2.536.69 4.869 1.5 7zm-30-52c1.305 1.897 1.971 4.231 2 7a3675.188 3675.188 0 0 0-1.5 22c-2.475 9.321-8.308 12.488-17.5 9.5-2.315-1.109-3.815-2.943-4.5-5.5-1.791-6.797-.958-13.297 2.5-19.5 6.4-4.522 12.733-9.022 19-13.5z"/><path style="opacity:.971" fill="#211f1e" d="M458.5 236.5h-7c-10.868-.694-17.701-6.36-20.5-17a1751.018 1751.018 0 0 1-1.5-99h27c-.167 28.335 0 56.669.5 85 2.311 9.439 7.811 11.939 16.5 7.5a60.631 60.631 0 0 0 3.5-6.5 1351.908 1351.908 0 0 0 1.5-86h26v113h-25a112.97 112.97 0 0 0-.5-15c-3.014 10.523-9.848 16.523-20.5 18z"/></svg>

<?xml version="1.0" encoding="UTF-8"?>
<!DOCTYPE svg PUBLIC "-//W3C//DTD SVG 1.1//EN" "http://www.w3.org/Graphics/SVG/1.1/DTD/svg11.dtd">
<svg xmlns="http://www.w3.org/2000/svg" version="1.1" width="1024px" height="237px" style="shape-rendering:geometricPrecision; text-rendering:geometricPrecision; image-rendering:optimizeQuality; fill-rule:evenodd; clip-rule:evenodd" xmlns:xlink="http://www.w3.org/1999/xlink">
<g><path style="opacity:0.967" fill="#00a0de" d="M 118.5,-0.5 C 123.833,-0.5 129.167,-0.5 134.5,-0.5C 151.16,7.166 156.66,19.8327 151,37.5C 149.052,41.6125 146.219,44.9459 142.5,47.5C 140.118,48.3507 138.118,49.684 136.5,51.5C 129.841,52.7832 123.174,52.7832 116.5,51.5C 114.882,49.684 112.882,48.3507 110.5,47.5C 98.6426,37.0134 96.4759,24.6801 104,10.5C 107.951,5.46568 112.784,1.79902 118.5,-0.5 Z"/></g>
<g><path style="opacity:0.95" fill="#231f20" d="M 110.5,47.5 C 112.882,48.3507 114.882,49.684 116.5,51.5C 108.32,66.0188 99.9867,80.5188 91.5,95C 101.244,103.573 104.077,114.073 100,126.5C 98.3651,129.632 96.5318,132.632 94.5,135.5C 102.167,150.167 109.833,164.833 117.5,179.5C 120.639,180.603 123.806,180.603 127,179.5C 130.031,180.039 133.031,180.706 136,181.5C 143.831,167.171 151.165,152.504 158,137.5C 158.667,136.167 158.667,134.833 158,133.5C 150.168,122.995 149.501,111.995 156,100.5C 157.833,98.6667 159.667,96.8333 161.5,95C 153.519,80.1925 145.185,65.6925 136.5,51.5C 138.118,49.684 140.118,48.3507 142.5,47.5C 150.821,62.1393 159.155,76.806 167.5,91.5C 184.469,86.0707 196.635,91.404 204,107.5C 207.297,120.275 203.797,130.775 193.5,139C 201.753,152.837 209.753,166.837 217.5,181C 238.613,177.063 250.946,185.73 254.5,207C 252.889,223.445 243.889,232.278 227.5,233.5C 208.289,231.454 199.456,220.787 201,201.5C 202.494,194.496 205.994,188.829 211.5,184.5C 203.373,170.414 195.373,156.248 187.5,142C 184.499,142.056 181.499,142.556 178.5,143.5C 173.725,143.035 169.225,141.701 165,139.5C 157.261,154.375 150.095,169.542 143.5,185C 157.137,199.993 156.803,214.659 142.5,229C 127.478,236.969 114.644,234.469 104,221.5C 96.642,206.926 99.142,194.259 111.5,183.5C 103.921,168.675 96.0879,154.008 88,139.5C 80.7236,143.246 73.2236,144.079 65.5,142C 57.7932,155.914 49.9599,169.748 42,183.5C 45.5781,187.138 48.5781,191.471 51,196.5C 55.8394,218.179 47.3394,230.513 25.5,233.5C 12.8119,232.505 4.14519,226.171 -0.5,214.5C -0.5,209.5 -0.5,204.5 -0.5,199.5C 6.46785,183.23 18.6345,176.897 36,180.5C 43.9599,166.748 51.7932,152.914 59.5,139C 47.8313,128.392 45.3313,115.892 52,101.5C 60.6958,90.2149 71.8624,86.8816 85.5,91.5C 93.8612,76.8162 102.195,62.1496 110.5,47.5 Z M 116.5,51.5 C 123.174,52.7832 129.841,52.7832 136.5,51.5C 145.185,65.6925 153.519,80.1925 161.5,95C 159.667,96.8333 157.833,98.6667 156,100.5C 149.501,111.995 150.168,122.995 158,133.5C 158.667,134.833 158.667,136.167 158,137.5C 151.165,152.504 143.831,167.171 136,181.5C 133.031,180.706 130.031,180.039 127,179.5C 123.806,180.603 120.639,180.603 117.5,179.5C 109.833,164.833 102.167,150.167 94.5,135.5C 96.5318,132.632 98.3651,129.632 100,126.5C 104.077,114.073 101.244,103.573 91.5,95C 99.9867,80.5188 108.32,66.0188 116.5,51.5 Z"/></g>
<g><path style="opacity:0.958" fill="#211f1e" d="M 310.5,83.5 C 320.749,83.1806 330.916,83.5139 341,84.5C 353.985,115.788 365.985,147.455 377,179.5C 377.5,147.502 377.667,115.502 377.5,83.5C 387.167,83.5 396.833,83.5 406.5,83.5C 406.5,133.5 406.5,183.5 406.5,233.5C 396.251,233.819 386.084,233.486 376,232.5C 362.627,202.05 350.627,171.05 340,139.5C 339.5,170.832 339.333,202.165 339.5,233.5C 329.833,233.5 320.167,233.5 310.5,233.5C 310.5,183.5 310.5,133.5 310.5,83.5 Z"/></g>
<g><path style="opacity:0.955" fill="#211f1e" d="M 882.5,89.5 C 891.5,89.5 900.5,89.5 909.5,89.5C 909.5,99.8333 909.5,110.167 909.5,120.5C 920.172,120.333 930.839,120.5 941.5,121C 939.167,127.333 936.833,133.667 934.5,140C 926.173,140.5 917.84,140.666 909.5,140.5C 909.333,163.836 909.5,187.169 910,210.5C 913.243,212.263 916.743,212.929 920.5,212.5C 920.5,219.5 920.5,226.5 920.5,233.5C 909.908,235.443 899.575,234.609 889.5,231C 887.291,229.127 885.458,226.96 884,224.5C 882.521,179.547 882.021,134.547 882.5,89.5 Z"/></g>
<g><path style="opacity:0.955" fill="#211f1e" d="M 576.5,117.5 C 584.643,116.649 592.31,118.149 599.5,122C 602.433,124.264 604.6,127.098 606,130.5C 611.933,121.283 620.433,116.949 631.5,117.5C 646.217,116.757 655.384,123.424 659,137.5C 659.5,169.498 659.667,201.498 659.5,233.5C 650.5,233.5 641.5,233.5 632.5,233.5C 632.667,205.165 632.5,176.831 632,148.5C 629.625,138.897 623.792,136.063 614.5,140C 611.246,142.342 609.412,145.509 609,149.5C 608.5,177.498 608.333,205.498 608.5,233.5C 599.5,233.5 590.5,233.5 581.5,233.5C 581.667,204.831 581.5,176.165 581,147.5C 577.681,138.538 571.514,136.038 562.5,140C 560.106,141.952 558.606,144.452 558,147.5C 557.5,176.165 557.333,204.831 557.5,233.5C 548.5,233.5 539.5,233.5 530.5,233.5C 530.5,195.833 530.5,158.167 530.5,120.5C 539.5,120.5 548.5,120.5 557.5,120.5C 557.335,123.518 557.502,126.518 558,129.5C 562.362,122.578 568.529,118.578 576.5,117.5 Z"/></g>
<g><path style="opacity:0.962" fill="#211f1e" d="M 727.5,236.5 C 724.5,236.5 721.5,236.5 718.5,236.5C 694.95,234.443 682.783,221.443 682,197.5C 681.1,179.465 681.433,161.465 683,143.5C 687.292,128.538 697.126,120.038 712.5,118C 724.891,116.231 736.558,118.231 747.5,124C 753.095,128.591 756.595,134.424 758,141.5C 759.862,155.095 760.695,168.761 760.5,182.5C 743.167,182.5 725.833,182.5 708.5,182.5C 707.895,191.994 708.729,201.328 711,210.5C 716.214,215.842 722.047,216.675 728.5,213C 730.317,211.2 731.484,209.034 732,206.5C 732.499,202.514 732.666,198.514 732.5,194.5C 741.5,194.5 750.5,194.5 759.5,194.5C 760.603,205.755 758.103,216.089 752,225.5C 745.093,232.183 736.926,235.849 727.5,236.5 Z M 715.5,138.5 C 724.868,136.091 730.701,139.424 733,148.5C 733.499,152.821 733.666,157.154 733.5,161.5C 725.167,161.5 716.833,161.5 708.5,161.5C 707.919,154.939 708.752,148.605 711,142.5C 712.397,140.93 713.897,139.596 715.5,138.5 Z"/></g>
<g><path style="opacity:0.957" fill="#211f1e" d="M 826.5,117.5 C 840.59,115.626 850.756,120.959 857,133.5C 858.465,166.792 858.965,200.126 858.5,233.5C 849.5,233.5 840.5,233.5 831.5,233.5C 831.667,205.498 831.5,177.498 831,149.5C 827.986,140.284 822.153,138.117 813.5,143C 811.932,145.304 810.765,147.804 810,150.5C 809.5,178.165 809.333,205.831 809.5,233.5C 800.5,233.5 791.5,233.5 782.5,233.5C 782.5,195.833 782.5,158.167 782.5,120.5C 791.5,120.5 800.5,120.5 809.5,120.5C 809.335,123.518 809.502,126.518 810,129.5C 813.75,122.893 819.25,118.893 826.5,117.5 Z"/></g>
<g><path style="opacity:0.965" fill="#211f1e" d="M 1023.5,227.5 C 1023.5,229.5 1023.5,231.5 1023.5,233.5C 1015.14,233.831 1006.81,233.498 998.5,232.5C 997.668,229.839 996.834,227.172 996,224.5C 990.934,230.436 984.768,234.436 977.5,236.5C 975.167,236.5 972.833,236.5 970.5,236.5C 951.649,233.891 942.983,222.891 944.5,203.5C 943.469,189.059 949.136,178.225 961.5,171C 969.716,167.059 978.049,163.392 986.5,160C 994.727,156.057 997.227,149.89 994,141.5C 991.347,139.059 988.18,138.059 984.5,138.5C 973.904,138.437 969.238,143.771 970.5,154.5C 962.167,154.5 953.833,154.5 945.5,154.5C 943.598,132.921 953.265,120.754 974.5,118C 985.396,116.801 996.062,117.801 1006.5,121C 1014.61,124.112 1019.45,129.946 1021,138.5C 1021.33,165.833 1021.67,193.167 1022,220.5C 1022.19,223.036 1022.69,225.369 1023.5,227.5 Z M 993.5,175.5 C 994.805,177.397 995.471,179.731 995.5,182.5C 994.978,189.832 994.478,197.165 994,204.5C 991.525,213.821 985.692,216.988 976.5,214C 974.185,212.891 972.685,211.057 972,208.5C 970.209,201.703 971.042,195.203 974.5,189C 980.9,184.478 987.233,179.978 993.5,175.5 Z"/></g>
<g><path style="opacity:0.971" fill="#211f1e" d="M 458.5,236.5 C 456.167,236.5 453.833,236.5 451.5,236.5C 440.632,235.806 433.799,230.14 431,219.5C 429.567,186.526 429.067,153.526 429.5,120.5C 438.5,120.5 447.5,120.5 456.5,120.5C 456.333,148.835 456.5,177.169 457,205.5C 459.311,214.939 464.811,217.439 473.5,213C 474.794,210.913 475.961,208.746 477,206.5C 478.412,177.859 478.912,149.192 478.5,120.5C 487.167,120.5 495.833,120.5 504.5,120.5C 504.5,158.167 504.5,195.833 504.5,233.5C 496.167,233.5 487.833,233.5 479.5,233.5C 479.666,228.489 479.499,223.489 479,218.5C 475.986,229.023 469.152,235.023 458.5,236.5 Z"/></g>
</svg>
